src/assets/icons/ico-fullscreen.svg

<svg width="24" height="24" viewBox="0 0 24 24" fill="none" xmlns="http://www.w3.org/2000/svg">
<g clip-path="url(#clip0_2308_75)">
<path d="M20.3942 2.46941L13.9594 8.6117C13.8872 8.68058 13.8293 8.76301 13.789 8.85427C13.7486 8.94554 13.7267 9.04385 13.7243 9.14359C13.722 9.24334 13.7394 9.34257 13.7754 9.43561C13.8114 9.52866 13.8654 9.61369 13.9343 9.68587C14.0032 9.75805 14.0856 9.81595 14.1769 9.85627C14.2681 9.89659 14.3664 9.91855 14.4662 9.92087C14.5659 9.9232 14.6652 9.90586 14.7582 9.86984C14.8512 9.83382 14.9363 9.77983 15.0085 9.71094L14.9739 9.67477L15.0085 9.71094L21.5307 3.4851V7.74197C21.5307 7.94345 21.6107 8.13667 21.7532 8.27914C21.8956 8.42161 22.0889 8.50165 22.2903 8.50165C22.4918 8.50165 22.685 8.42161 22.8275 8.27914C22.97 8.13667 23.05 7.94345 23.05 7.74197V1.70974C23.05 1.50826 22.97 1.31503 22.8275 1.17256C22.685 1.0301 22.4918 0.950061 22.2903 0.950061H16.2581C16.0566 0.950061 15.8634 1.0301 15.7209 1.17256C15.5785 1.31503 15.4984 1.50826 15.4984 1.70974C15.4984 1.91121 15.5785 2.10444 15.7209 2.24691C15.8634 2.38937 16.0566 2.46941 16.2581 2.46941H20.3942ZM21.5306 20.4564L15.021 13.9468L15.0204 13.9462C14.8771 13.8078 14.6852 13.7312 14.486 13.733C14.2868 13.7347 14.0963 13.8146 13.9554 13.9554C13.8146 14.0963 13.7347 14.2868 13.733 14.486C13.7312 14.6852 13.8078 14.8771 13.9462 15.0204L13.9462 15.0204L13.9468 15.021L20.4564 21.5306H16.2581C16.0566 21.5306 15.8634 21.6107 15.7209 21.7531C15.5784 21.8956 15.4984 22.0888 15.4984 22.2903C15.4984 22.4918 15.5784 22.685 15.7209 22.8275C15.8634 22.9699 16.0566 23.05 16.2581 23.05H22.2903C22.4918 23.05 22.685 22.9699 22.8275 22.8275C22.9699 22.685 23.05 22.4918 23.05 22.2903V16.2581C23.05 16.0566 22.9699 15.8634 22.8275 15.7209C22.685 15.5784 22.4918 15.4984 22.2903 15.4984C22.0888 15.4984 21.8956 15.5784 21.7531 15.7209C21.6107 15.8634 21.5306 16.0566 21.5306 16.2581V20.4564ZM8.62478 14.301L8.62416 14.3016L2.46935 20.4564V16.2581C2.46935 16.0566 2.38931 15.8634 2.24685 15.7209C2.10438 15.5784 1.91115 15.4984 1.70967 15.4984C1.5082 15.4984 1.31497 15.5784 1.1725 15.7209C1.03004 15.8634 0.95 16.0566 0.95 16.2581V22.2903C0.95 22.4918 1.03004 22.685 1.1725 22.8275C1.31497 22.9699 1.5082 23.05 1.70967 23.05H7.74191C7.94339 23.05 8.13661 22.9699 8.27908 22.8275C8.42155 22.685 8.50158 22.4918 8.50158 22.2903C8.50158 22.0888 8.42155 21.8956 8.27908 21.7531C8.13661 21.6107 7.94339 21.5306 7.74191 21.5306H3.54354L9.69836 15.3758L9.69896 15.3752C9.83734 15.2319 9.91391 15.04 9.91218 14.8408C9.91045 14.6417 9.83056 14.4511 9.68971 14.3103C9.54886 14.1694 9.35832 14.0895 9.15914 14.0878C8.95995 14.0861 8.76806 14.1626 8.62478 14.301L8.62478 14.301ZM2.46935 3.5436L8.62416 9.69842L8.62478 9.69902C8.76806 9.8374 8.95995 9.91397 9.15914 9.91224C9.35832 9.91051 9.54886 9.83062 9.68971 9.68977C9.83056 9.54892 9.91045 9.35838 9.91218 9.1592C9.91391 8.96002 9.83734 8.76812 9.69897 8.62484L9.69835 8.62422L3.54354 2.46941H7.74191C7.94339 2.46941 8.13661 2.38937 8.27908 2.24691C8.42155 2.10444 8.50158 1.91121 8.50158 1.70974C8.50158 1.50826 8.42155 1.31503 8.27908 1.17256C8.13661 1.0301 7.94339 0.950061 7.74191 0.950061H1.70967C1.5082 0.950061 1.31497 1.0301 1.1725 1.17256C1.03004 1.31503 0.95 1.50826 0.95 1.70974V7.74197C0.95 7.94345 1.03004 8.13667 1.1725 8.27914C1.31497 8.42161 1.5082 8.50165 1.70967 8.50165C1.91115 8.50165 2.10438 8.42161 2.24685 8.27914C2.38931 8.13667 2.46935 7.94345 2.46935 7.74197V3.5436Z" fill="#353B45" stroke="#353B45" stroke-width="0.1"/>
</g>
<defs>
<clipPath id="clip0_2308_75">
<rect width="24" height="24" fill="white"/>
</clipPath>
</defs>
</svg>

<svg width="24" height="24" fill="none" xmlns="http://www.w3.org/2000/svg"><g clip-path="url(#a)"><path d="m20.3942 2.4694-6.4348 6.1423a.759.759 0 0 0-.2351.5319.7607.7607 0 0 0 .21.5423.7595.7595 0 0 0 1.0742.025l-.0346-.0361.0346.0361 6.5222-6.2258V7.742a.7595.7595 0 1 0 1.5193 0V1.7097a.7596.7596 0 0 0-.7597-.7596h-6.0322a.7598.7598 0 0 0 0 1.5193h4.1361Zm1.1364 17.987-6.5096-6.5096-.0006-.0006a.7598.7598 0 0 0-1.2874.5398.7594.7594 0 0 0 .2132.5344l.0006.0006 6.5096 6.5096h-4.1983a.76.76 0 0 0-.7597.7597.7596.7596 0 0 0 .7597.7597h6.0322a.76.76 0 0 0 .7597-.7597v-6.0322a.76.76 0 0 0-.7597-.7597.7596.7596 0 0 0-.7597.7597v4.1983ZM8.6248 14.301l-.0006.0006-6.1548 6.1548v-4.1983a.7598.7598 0 0 0-1.5194 0v6.0322a.7598.7598 0 0 0 .7597.7597h6.0322a.76.76 0 0 0 .7597-.7597.7597.7597 0 0 0-.7597-.7597H3.5435l6.1549-6.1548.0006-.0006a.7598.7598 0 0 0-1.0742-1.0742ZM2.4693 3.5436l6.1549 6.1548.0006.0006A.7597.7597 0 0 0 9.699 8.6248l-.0007-.0006-6.1548-6.1548H7.742a.7597.7597 0 0 0 0-1.5193H1.7097a.7597.7597 0 0 0-.7597.7596V7.742a.7597.7597 0 0 0 1.5193 0V3.5436Z" fill="#353B45" stroke="#353B45" stroke-width=".1"/></g><defs><clipPath id="a"><path fill="#fff" d="M0 0h24v24H0z"/></clipPath></defs></svg>
